X:1
T:Resvelons nous, resvelons, amoureux
T:Resvelons nous, resvelons, amoureux
T:Guillaume Dufay (1397-1474)
T:© 2009 by Paul R Marchesano. May be freely copied for nonprofit use.
T:© 2009 by Paul R Marchesano. May be freely copied for nonprofit use.
C:Guillaume Dufay
C:(1397-1474)
Z:© 2009 by Paul R Marchesano. May be freely copied for nonprofit use.
%%score [ 1 2 3 ]
L:1/8
Q:1/4=148
M:3/4
K:C
V:1 treble nm="Alto" snm="A"
V:2 treble-8 nm="Tenor" snm="T"
V:3 bass nm="Bass" snm="B"
V:1
 G2 G2 FG | A2 G F2 E | D4 ^C2 | D2 z2 E2 | F4 D2 | E4 D2 | A,2 z A, B,C | DE D D^CB, | D2 z2 z2 | %9
w: Res- ve- lons _|nous, res- ve- lons,|a- mour-|eux A-|lons au|bois tan-|tost cueil- * *|lir _ _ le _ _|may,|
 A2 A2 A2 | G2 c2 B2 | AG F E2 D | F2 z2 G2 | F4 E2 | D3 C DB, | A,2 z2 A2 | AG F2 E2 | D4 ^C2 | %18
w: Et chan- te-|rons chas- cun|un _ vi- * re-|lay, Pour|sa da-|me, _ _ _|_ s'en|se- * * rons|plus joy-|
 D4 E2 | F3 E FG | EF D^C CB, | D6 |] %22
w: eux. _|_ _ _ _|||
V:2
 c4 d2 | c4 B2 | A4 G2 | A6 | z6 | c4 d2 | c4 B2 | A4 G2 | A6 | z6 | c4 d2 | c4 B2 | A4 G2 | A6 | %14
w: A- lons|ent bien|tos au|may||A- lons|ent bien|tos au|may||A- lons|ent bien|tos au|may|
 z6 | c4 d2 | c4 B2 | A4 G2 | A6 | z6 | G4 G2 | A6 |] %22
w: |A- lons|ent bien|tos au|may||au _|may.|
V:3
 z6 | F,4 G,2 | F,4 E,2 | D,4 C,2 | D,6 | z6 | F,4 G,2 | F,4 E,2 | D,4 C,2 | D,6 | z6 | F,4 G,2 | %12
w: |A- lons|ent bien|tos au|may||A- lons|ent bien|tos au|may||A- lons|
 F,4 E,2 | D,4 C,2 | D,6 | z6 | F,4 G,2 | F,4 E,2 | D,4 C,2 | D,6 | E,4 E,2 | D,6 |] %22
w: ent bien|tos au|may||A- lons|ent bien|tos au|may|au _|may.|

